frontend/css/icons/nutrition.svg

<?xml version="1.0" encoding="UTF-8" standalone="no"?>
<svg viewBox="0 0 32 32" version="1.1" xmlns="http://www.w3.org/2000/svg" xmlns:xlink="http://www.w3.org/1999/xlink">
    <!-- Generator: Sketch 46.1 (44463) - http://www.bohemiancoding.com/sketch -->
    <title>icons/nutrition</title>
    <desc>Created with Sketch.</desc>
    <defs></defs>
    <g id="Symbols" stroke="none" stroke-width="1" fill="none" fill-rule="evenodd">
        <g id="icons/nutrition">
            <g id="Group-8">
                <circle id="Oval-2-Copy-2" fill="#FAB400" cx="16" cy="16" r="16"></circle>
                <path d="M10.6270478,25.3978095 L10.6475326,25.4182943 L10.3812299,22.7347821 C10.3812299,22.5913883 10.4631692,22.5913883 10.5860781,22.6118731 C10.6475326,22.6323579 10.7089871,22.6323579 10.8114112,22.6528427 C10.8933505,22.6733276 10.9752898,22.6938124 11.077714,22.6938124 L11.077714,22.6938124 C11.1801381,22.6938124 11.2620774,22.6733276 11.3645015,22.6528427 C11.5283801,22.6118731 11.6512891,22.5913883 11.7332284,22.6118731 C11.7537132,22.6323579 11.774198,22.6733276 11.774198,22.7347821 L11.774198,22.7347821 L11.548865,25.3568398 C11.548865,25.6231425 11.3235319,25.7050818 11.0981988,25.684597 C10.8523809,25.6641122 10.6270478,25.5412032 10.6270478,25.3978095 Z M9.43892786,16.609819 L9.47989751,16.6507887 C8.49662586,16.2206073 8.06644451,15.6470322 7.86159624,15.1758812 C7.75917211,14.9505481 7.69771764,14.7456998 7.69771764,14.5818212 C7.67723281,14.4384275 7.67723281,14.3564882 7.67723281,14.3564882 C7.53383903,14.6023061 7.61577833,15.790426 7.96402038,16.9170914 C8.31226242,18.0642417 8.96777686,19.1294526 9.97153334,19.1294526 C10.4426843,19.1294526 10.8523809,18.740241 10.8728657,18.2281203 C10.8933505,17.7364845 10.5246236,17.1014549 9.43892786,16.609819 Z M9.39795821,13.5370951 L9.43892786,13.5780648 C8.4556562,13.1478834 8.02547485,12.5743083 7.82062659,12.1031573 C7.71820246,11.8778242 7.65674798,11.6729759 7.65674798,11.5090973 C7.63626316,11.3657035 7.63626316,11.2837642 7.63626316,11.2837642 C7.49286937,11.5295821 7.57480868,12.7177021 7.92305072,13.8443675 C8.27129277,14.9915178 8.92680721,16.0567287 9.93056369,16.0567287 C10.4017147,16.0567287 10.8114112,15.667517 10.831896,15.1553964 C10.8523809,14.6637605 10.483654,14.0287309 9.39795821,13.5370951 Z M9.35698855,10.5667953 L9.39795821,10.607765 C8.41468655,10.1775836 7.9845052,9.60400848 7.77965694,9.13285748 C7.67723281,8.90752439 7.61577833,8.70267613 7.61577833,8.53879752 C7.5952935,8.39540374 7.5952935,8.31346443 7.5952935,8.31346443 C7.45189972,8.55928235 7.53383903,9.74740226 7.88208107,10.8740677 C8.23032312,12.021218 8.88583755,13.0864289 9.88959404,13.0864289 C10.360745,13.0864289 10.7704416,12.6972172 10.7909264,12.1850966 C10.8114112,11.6934607 10.4426843,11.0584311 9.35698855,10.5667953 Z M12.0405008,19.088483 L12.0609856,19.0475133 C13.0647421,19.0475133 13.7202565,17.9823024 14.0684986,16.8351521 C14.252862,16.2820618 14.3552861,15.7289715 14.3962558,15.2168508 C14.4372254,14.7047302 14.4372254,14.3974578 14.375771,14.2745488 L14.375771,14.4998819 C14.3552861,14.8276392 14.1709227,15.2987902 13.6792869,15.8313956 C13.433469,16.0976984 13.0647421,16.3435163 12.5731063,16.5688494 C11.4874105,17.0604852 11.1186836,17.6955148 11.1391684,18.1871506 C11.1596533,18.6992713 11.5693498,19.088483 12.0405008,19.088483 Z M9.29553408,19.6415733 L9.33650373,19.682543 C8.35323207,19.2523616 7.92305072,18.6787865 7.71820246,18.2076355 C7.61577833,17.9823024 7.55432385,17.7774541 7.55432385,17.6135755 C7.53383903,17.4701817 7.53383903,17.3882424 7.53383903,17.3882424 C7.39044524,17.6340603 7.47238455,18.8221803 7.82062659,19.9488457 C8.16886864,21.095996 8.82438307,22.1612069 9.82813956,22.1612069 C10.2992906,22.1612069 10.7089871,21.7719952 10.7294719,21.2598746 C10.7499567,20.7682387 10.3812299,20.1332091 9.29553408,19.6415733 Z M11.9790463,22.1816917 L11.9995311,22.1407221 C13.0032876,22.1407221 13.658802,21.0755111 14.0070441,19.9283609 C14.1914075,19.3752706 14.2938317,18.8221803 14.3348013,18.3100596 C14.375771,17.7979389 14.375771,17.4906666 14.3143165,17.3677576 L14.3143165,17.5930907 C14.2938317,17.9208479 14.1094682,18.3919989 13.6178324,18.9246044 C13.3720145,19.1909071 13.0032876,19.436725 12.5116518,19.6620581 C11.425956,20.153694 11.0572291,20.7887236 11.077714,21.2803594 C11.0981988,21.79248 11.5078953,22.1816917 11.9790463,22.1816917 Z M11.9585615,16.0976984 L11.9790463,16.0567287 C12.9828028,16.0567287 13.6383172,14.9915178 13.9865593,13.8443675 C14.1709227,13.2912772 14.2733468,12.7381869 14.3143165,12.2260662 C14.3552861,11.7139456 14.3552861,11.4066732 14.2938317,11.2837642 L14.2938317,11.5090973 C14.2733468,11.8368545 14.0889834,12.3080055 13.5973476,12.840611 C13.3515297,13.1069138 12.9828028,13.3527317 12.491167,13.5780648 C11.4054712,14.0697006 11.0367443,14.7047302 11.0572291,15.196366 C11.077714,15.7084867 11.4874105,16.0976984 11.9585615,16.0976984 Z M11.9380767,13.1888531 L11.9585615,13.1478834 C12.962318,13.1478834 13.6178324,12.0826724 13.9660744,10.9355222 C14.1504379,10.3824319 14.252862,9.82934157 14.2938317,9.31722091 C14.3348013,8.80510026 14.3348013,8.49782787 14.2733468,8.37491891 L14.2733468,8.600252 C14.252862,8.92800922 14.0684986,9.39916022 13.5768627,9.9317657 C13.3310448,10.1980684 12.962318,10.4438864 12.4706821,10.6692194 C11.3849863,11.1608553 11.0162595,11.7958849 11.0367443,12.2875207 C11.0572291,12.7996414 11.4669256,13.1888531 11.9380767,13.1888531 Z M10.9752898,10.9355222 L10.9752898,10.9150374 C12.0609856,10.9150374 12.0405008,9.76788709 11.7332284,8.62073682 C11.5898346,8.04716169 11.4054712,7.51455621 11.1801381,7.04340521 C10.7499567,6.08061838 10.8523809,6.24449699 10.4631692,7.22776864 C10.0534726,8.2110403 9.80765473,9.39916022 10.012503,10.2800077 C10.1149271,10.7101891 10.4221995,10.9355222 10.9752898,10.9355222 Z M16.8339501,25.7665363 L16.8339501,25.7870212 L18.144979,23.4927206 C18.2064335,23.3902965 18.144979,23.328842 18.02207,23.3083572 C17.8991611,23.2878724 17.6943128,23.2469027 17.5099494,23.1649634 L17.5099494,23.1649634 C17.4075252,23.1239938 17.3255859,23.0830241 17.2641315,23.0215696 C17.1207377,22.9191455 17.0183135,22.8167214 16.9363742,22.7962365 C16.8954046,22.7962365 16.8544349,22.8167214 16.8339501,22.8781758 L15.9531026,25.4182943 C15.8916481,25.5616881 16.0760115,25.7460515 16.2808598,25.8689605 C16.4857081,25.9918694 16.731526,26.0123542 16.8339501,25.7665363 Z M18.5956452,16.9990307 L18.5956452,17.0195156 C17.8786762,16.2001225 17.7147976,15.4831536 17.7352825,14.9710329 C17.7352825,14.725215 17.7762521,14.5203668 17.8377066,14.376973 C17.8991611,14.2335792 17.9196459,14.1721247 17.9196459,14.1721247 C17.8172218,14.254064 17.673828,14.5408516 17.4894645,15.0120026 C17.1412225,15.9952742 16.9363742,17.2448486 17.1617073,18.3305444 C17.2641315,18.8836347 17.550919,19.2523616 18.02207,19.4776947 C18.4317665,19.6620581 18.964372,19.4981795 19.2101899,19.0679982 C19.4560079,18.6378168 19.3945534,17.9003631 18.5956452,16.9990307 Z M19.8657044,14.2335792 L19.8657044,14.254064 C19.1487355,13.434671 18.9848569,12.7381869 19.0053417,12.2260662 C19.0053417,11.9802483 19.0463113,11.7754001 19.1077658,11.6320063 C19.1692203,11.4886125 19.1897051,11.427158 19.1897051,11.427158 C19.087281,11.5090973 18.9438872,11.7958849 18.7595238,12.2670359 C18.4112817,13.2503075 18.2064335,14.4998819 18.4317665,15.5855777 C18.5341907,16.138668 18.8209782,16.5073949 19.2921292,16.732728 C19.7018258,16.9170914 20.2344312,16.7532128 20.4802492,16.3230315 C20.7260671,15.8928501 20.6646126,15.1553964 19.8657044,14.2335792 Z M21.0947939,11.5705518 C20.377825,10.7511587 20.2139464,10.0546747 20.2344312,9.542554 C20.2344312,9.29673609 20.2754009,9.09188783 20.3368554,8.94849404 C20.3983099,8.80510026 20.4187947,8.74364578 20.4187947,8.74364578 C20.3163706,8.82558509 20.1729768,9.11237265 19.9886133,9.58352365 C19.6403713,10.5667953 19.435523,11.8163697 19.6608561,12.9020655 C19.7632802,13.4551558 20.0500678,13.8238827 20.5212188,14.0492158 C20.9309153,14.2335792 21.4635208,14.0697006 21.7093387,13.6395192 C21.9551566,13.2093379 21.8937022,12.4718841 21.0947939,11.5705518 Z M20.0090982,20.3995119 L19.9886133,20.3995119 C20.9104305,20.8296932 21.9346718,20.1332091 22.7540649,19.2523616 C23.5529731,18.3715141 24.1060634,17.3063031 24.1060634,17.0400004 C24.1060634,17.0400004 24.0650937,17.1014549 24.0036393,17.2448486 C23.8602455,17.5111514 23.4915186,17.8798783 22.8360042,18.146181 C22.4877621,18.2895748 22.0575808,18.3510293 21.5249753,18.3510293 C20.3163706,18.3510293 19.7223106,18.7607258 19.558432,19.2318768 C19.3740686,19.7030278 19.5994016,20.2151484 20.0090982,20.3995119 Z M17.2846163,19.8054519 C16.5676474,18.9860589 16.4037688,18.2895748 16.4242536,17.7774541 C16.4242536,17.5316362 16.4652232,17.3267879 16.5266777,17.1833942 C16.5881322,17.0400004 16.608617,16.9785459 16.608617,16.9785459 C16.5061929,17.0604852 16.3627991,17.3472728 16.1784357,17.8184238 C15.8301936,18.8016954 15.6253454,20.0512698 15.8506784,21.1369656 C15.9531026,21.6900559 16.2398901,22.0587828 16.7110411,22.2841159 C17.1207377,22.4684793 17.6533432,22.3046007 17.8991611,21.8744194 C18.144979,21.444238 18.0835245,20.7067843 17.2846163,19.8054519 Z M18.7185541,23.2264179 L18.6980693,23.2264179 C19.6198865,23.6565992 20.6441278,22.9601151 21.4635208,22.0792676 C22.262429,21.1984201 22.8155193,20.1332091 22.8155193,19.8669064 C22.8155193,19.8669064 22.7745497,19.9283609 22.7130952,20.0717547 C22.5697014,20.3380574 22.2009746,20.7067843 21.5454601,20.973087 C21.1972181,21.1164808 20.7670367,21.1779353 20.2344312,21.1779353 C19.0258265,21.1779353 18.4317665,21.5876318 18.2678879,22.0587828 C18.0835245,22.5299338 18.3088576,23.0420544 18.7185541,23.2264179 Z M21.320127,17.67503 L21.2996422,17.67503 C22.2214594,18.1052113 23.2457007,17.4087272 24.0650937,16.5278797 C24.864002,15.6470322 25.4170923,14.5818212 25.4170923,14.3155185 C25.4170923,14.3155185 25.3761226,14.376973 25.3146681,14.5203668 C25.1712744,14.7866695 24.8025475,15.1553964 24.147033,15.4216991 C23.798791,15.5650929 23.3686097,15.6265474 22.8360042,15.6265474 C21.6273994,15.6265474 21.0333395,16.0362439 20.8694609,16.5073949 C20.6850974,16.9785459 20.9104305,17.4906666 21.320127,17.67503 Z M22.5697014,14.9915178 L22.5492166,15.0120026 C23.4710338,15.4421839 24.4952751,14.7456998 25.3146681,13.8648523 C26.1135764,12.9840048 26.6666667,11.9187938 26.6666667,11.6524911 C26.6666667,11.6524911 26.625697,11.7139456 26.5642425,11.8573394 C26.4208488,12.1236421 26.0521219,12.492369 25.3966074,12.7586717 C25.0483654,12.9020655 24.618184,12.96352 24.0855786,12.9430351 C22.8769738,12.9430351 22.2829139,13.3527317 22.1190353,13.8238827 C21.9346718,14.2950337 22.1600049,14.8071543 22.5697014,14.9915178 Z M22.6516407,12.5538234 L22.6516407,12.5333386 C23.6349124,13.0044896 24.0855786,11.9392787 24.3109117,10.7716436 C24.4133358,10.1775836 24.4747903,9.62449331 24.4952751,9.09188783 C24.4952751,8.04716169 24.5362447,8.23152513 23.7578214,8.94849404 C22.979398,9.68594778 22.2214594,10.6487346 22.0575808,11.5295821 C21.9551566,11.9802483 22.1600049,12.3284904 22.6516407,12.5538234 Z" id="Page-1" fill="#FFFFFF"></path>
            </g>
        </g>
    </g>
</svg>

<!-- Generated by IcoMoon.io -->
<svg version="1.1" xmlns="http://www.w3.org/2000/svg" viewBox="0 0 32 32">
<title>nutrition</title>
<path d="M16 32c-8.837 0-16-7.163-16-16s7.163-16 16-16c8.837 0 16 7.163 16 16s-7.163 16-16 16zM10.627 25.398c0 0.143 0.225 0.266 0.471 0.287 0.225 0.020 0.451-0.061 0.451-0.328l0.225-2.622c0-0.061-0.021-0.102-0.041-0.123-0.082-0.020-0.205 0-0.369 0.041-0.102 0.020-0.184 0.041-0.287 0.041v0c-0.102 0-0.184-0.020-0.266-0.041-0.102-0.020-0.164-0.020-0.225-0.041-0.123-0.020-0.205-0.020-0.205 0.123l0.266 2.683-0.021-0.020zM9.439 16.61l0.041 0.041c-0.983-0.43-1.413-1.004-1.618-1.475-0.102-0.225-0.164-0.43-0.164-0.594-0.021-0.143-0.021-0.225-0.021-0.225-0.143 0.246-0.061 1.434 0.287 2.561 0.348 1.147 1.004 2.212 2.008 2.212 0.471 0 0.881-0.389 0.901-0.901 0.021-0.492-0.348-1.127-1.434-1.618zM9.398 13.537l0.041 0.041c-0.983-0.43-1.413-1.004-1.618-1.475-0.102-0.225-0.164-0.43-0.164-0.594-0.021-0.143-0.021-0.225-0.021-0.225-0.143 0.246-0.061 1.434 0.287 2.561 0.348 1.147 1.004 2.212 2.008 2.212 0.471 0 0.881-0.389 0.901-0.901 0.021-0.492-0.348-1.127-1.434-1.618zM9.357 10.567l0.041 0.041c-0.983-0.43-1.413-1.004-1.618-1.475-0.102-0.225-0.164-0.43-0.164-0.594-0.021-0.143-0.021-0.225-0.021-0.225-0.143 0.246-0.061 1.434 0.287 2.561 0.348 1.147 1.004 2.212 2.008 2.212 0.471 0 0.881-0.389 0.901-0.901 0.021-0.492-0.348-1.127-1.434-1.618zM12.040 19.088l0.021-0.041c1.004 0 1.659-1.065 2.008-2.212 0.184-0.553 0.287-1.106 0.328-1.618s0.041-0.819-0.021-0.942v0.225c-0.021 0.328-0.205 0.799-0.696 1.332-0.246 0.266-0.615 0.512-1.106 0.737-1.086 0.492-1.454 1.127-1.434 1.618 0.021 0.512 0.43 0.901 0.901 0.901zM9.296 19.642l0.041 0.041c-0.983-0.43-1.413-1.004-1.618-1.475-0.102-0.225-0.164-0.43-0.164-0.594-0.021-0.143-0.021-0.225-0.021-0.225-0.143 0.246-0.061 1.434 0.287 2.561 0.348 1.147 1.004 2.212 2.008 2.212 0.471 0 0.881-0.389 0.901-0.901 0.021-0.492-0.348-1.127-1.434-1.618zM11.979 22.182l0.021-0.041c1.004 0 1.659-1.065 2.008-2.212 0.184-0.553 0.287-1.106 0.328-1.618s0.041-0.819-0.021-0.942v0.225c-0.021 0.328-0.205 0.799-0.696 1.331-0.246 0.266-0.615 0.512-1.106 0.737-1.086 0.492-1.454 1.127-1.434 1.618 0.021 0.512 0.43 0.901 0.901 0.901zM11.959 16.098l0.021-0.041c1.004 0 1.659-1.065 2.008-2.212 0.184-0.553 0.287-1.106 0.328-1.618s0.041-0.819-0.021-0.942v0.225c-0.021 0.328-0.205 0.799-0.696 1.332-0.246 0.266-0.615 0.512-1.106 0.737-1.086 0.492-1.454 1.127-1.434 1.618 0.021 0.512 0.43 0.901 0.901 0.901zM11.938 13.189l0.021-0.041c1.004 0 1.659-1.065 2.008-2.212 0.184-0.553 0.287-1.106 0.328-1.618s0.041-0.819-0.021-0.942v0.225c-0.021 0.328-0.205 0.799-0.696 1.332-0.246 0.266-0.615 0.512-1.106 0.737-1.086 0.492-1.454 1.127-1.434 1.618 0.021 0.512 0.43 0.901 0.901 0.901zM10.975 10.936v-0.021c1.086 0 1.065-1.147 0.758-2.294-0.143-0.574-0.328-1.106-0.553-1.577-0.43-0.963-0.328-0.799-0.717 0.184-0.41 0.983-0.655 2.171-0.451 3.052 0.102 0.43 0.41 0.655 0.963 0.655zM16.834 25.767v0.020l1.311-2.294c0.061-0.102 0-0.164-0.123-0.184s-0.328-0.061-0.512-0.143v0c-0.102-0.041-0.184-0.082-0.246-0.143-0.143-0.102-0.246-0.205-0.328-0.225-0.041 0-0.082 0.020-0.102 0.082l-0.881 2.54c-0.061 0.143 0.123 0.328 0.328 0.451s0.451 0.143 0.553-0.102zM18.596 16.999v0.020c-0.717-0.819-0.881-1.536-0.86-2.048 0-0.246 0.041-0.451 0.102-0.594s0.082-0.205 0.082-0.205c-0.102 0.082-0.246 0.369-0.43 0.84-0.348 0.983-0.553 2.233-0.328 3.319 0.102 0.553 0.389 0.922 0.86 1.147 0.41 0.184 0.942 0.020 1.188-0.41s0.184-1.168-0.615-2.069zM19.866 14.234v0.021c-0.717-0.819-0.881-1.516-0.86-2.028 0-0.246 0.041-0.451 0.102-0.594s0.082-0.205 0.082-0.205c-0.102 0.082-0.246 0.369-0.43 0.84-0.348 0.983-0.553 2.233-0.328 3.319 0.102 0.553 0.389 0.922 0.86 1.147 0.41 0.184 0.942 0.020 1.188-0.41s0.184-1.168-0.615-2.089zM21.095 11.571c-0.717-0.819-0.881-1.516-0.86-2.028 0-0.246 0.041-0.451 0.102-0.594s0.082-0.205 0.082-0.205c-0.102 0.082-0.246 0.369-0.43 0.84-0.348 0.983-0.553 2.233-0.328 3.319 0.102 0.553 0.389 0.922 0.86 1.147 0.41 0.184 0.942 0.021 1.188-0.41s0.184-1.168-0.615-2.069zM20.009 20.399h-0.020c0.922 0.43 1.946-0.266 2.765-1.147 0.799-0.881 1.352-1.946 1.352-2.212 0 0-0.041 0.061-0.102 0.205-0.143 0.266-0.512 0.635-1.168 0.901-0.348 0.143-0.778 0.205-1.311 0.205-1.209 0-1.803 0.41-1.967 0.881-0.184 0.471 0.041 0.983 0.451 1.168zM17.285 19.805c-0.717-0.819-0.881-1.516-0.86-2.028 0-0.246 0.041-0.451 0.102-0.594s0.082-0.205 0.082-0.205c-0.102 0.082-0.246 0.369-0.43 0.84-0.348 0.983-0.553 2.233-0.328 3.319 0.102 0.553 0.389 0.922 0.86 1.147 0.41 0.184 0.942 0.020 1.188-0.41s0.184-1.168-0.615-2.069zM18.719 23.226h-0.020c0.922 0.43 1.946-0.266 2.765-1.147 0.799-0.881 1.352-1.946 1.352-2.212 0 0-0.041 0.061-0.102 0.205-0.143 0.266-0.512 0.635-1.168 0.901-0.348 0.143-0.778 0.205-1.311 0.205-1.209 0-1.803 0.41-1.967 0.881-0.184 0.471 0.041 0.983 0.451 1.168zM21.32 17.675h-0.020c0.922 0.43 1.946-0.266 2.765-1.147 0.799-0.881 1.352-1.946 1.352-2.212 0 0-0.041 0.061-0.102 0.205-0.143 0.266-0.512 0.635-1.168 0.901-0.348 0.143-0.778 0.205-1.311 0.205-1.209 0-1.803 0.41-1.967 0.881-0.184 0.471 0.041 0.983 0.451 1.168zM22.57 14.992l-0.020 0.021c0.922 0.43 1.946-0.266 2.765-1.147 0.799-0.881 1.352-1.946 1.352-2.212 0 0-0.041 0.061-0.102 0.205-0.143 0.266-0.512 0.635-1.168 0.901-0.348 0.143-0.778 0.205-1.311 0.184-1.209 0-1.803 0.41-1.967 0.881-0.184 0.471 0.041 0.983 0.451 1.168zM22.652 12.554v-0.021c0.983 0.471 1.434-0.594 1.659-1.762 0.102-0.594 0.164-1.147 0.184-1.68 0-1.045 0.041-0.86-0.737-0.143-0.778 0.737-1.536 1.7-1.7 2.581-0.102 0.451 0.102 0.799 0.594 1.024z"></path>
</svg>
